svg/color/ltx.svg

<?xml version="1.0" encoding="UTF-8" ?>
<!DOCTYPE svg PUBLIC "-//W3C//DTD SVG 1.1//EN" "http://www.w3.org/Graphics/SVG/1.1/DTD/svg11.dtd">
<svg width="191pt" height="250pt" viewBox="0 0 191 250" version="1.1" xmlns="http://www.w3.org/2000/svg">
<g id="#ffffffff">
<path fill="#ffffff" opacity="1.00" d=" M 0.00 0.00 L 191.00 0.00 L 191.00 217.81 C 183.78 217.82 176.56 217.73 169.34 217.84 C 169.49 228.38 169.36 238.93 169.41 249.47 C 176.61 249.35 183.80 249.42 191.00 249.40 L 191.00 250.00 L 0.00 250.00 L 0.00 249.40 C 6.82 249.42 13.64 249.33 20.45 249.46 C 20.45 247.58 20.45 245.71 20.45 243.83 C 15.85 243.91 11.25 243.88 6.65 243.83 C 6.72 235.17 6.58 226.51 6.73 217.85 C 4.49 217.79 2.24 217.78 0.00 217.79 L 0.00 0.00 M 161.01 7.00 C 139.21 27.92 117.42 48.85 95.50 69.64 C 93.34 68.11 92.01 65.68 89.81 64.18 C 79.88 55.48 71.11 45.54 61.07 36.97 C 49.49 25.12 36.97 14.24 25.35 2.43 C 24.38 2.42 23.41 2.41 22.44 2.39 C 22.72 16.29 22.45 30.19 22.59 44.09 C 22.23 46.72 24.47 48.35 26.14 49.94 C 36.87 59.46 46.62 70.02 57.38 79.52 C 62.18 83.71 66.03 89.09 71.49 92.44 C 60.56 102.87 49.69 113.36 38.75 123.78 C 33.31 128.83 27.97 133.99 22.71 139.23 C 22.74 154.72 22.56 170.21 22.79 185.70 C 26.05 181.67 30.21 178.53 33.83 174.85 C 54.39 155.20 74.90 135.50 95.51 115.91 C 101.98 121.60 107.73 128.07 114.27 133.69 C 115.86 134.88 116.60 137.09 118.61 137.70 C 118.63 138.06 118.67 138.78 118.69 139.14 C 120.75 139.42 122.03 141.17 123.45 142.50 C 129.85 148.77 136.11 155.22 142.90 161.09 C 148.40 166.25 153.49 171.87 159.22 176.78 C 161.11 179.31 164.18 180.63 165.92 183.32 C 166.36 183.46 167.22 183.73 167.65 183.87 C 167.82 183.45 168.14 182.61 168.31 182.20 C 168.51 168.10 168.31 153.98 168.41 139.88 C 167.71 138.84 167.01 137.80 166.08 136.95 C 160.82 132.17 156.13 126.78 150.56 122.33 C 140.41 112.44 130.40 102.38 119.90 92.86 C 132.29 80.57 145.18 68.84 157.60 56.59 C 161.06 53.03 165.10 50.06 168.31 46.26 C 168.22 31.07 168.36 15.87 168.24 0.68 C 165.39 2.24 163.36 4.84 161.01 7.00 M 36.14 220.04 C 33.81 225.90 32.07 231.98 29.86 237.88 C 29.51 238.85 29.16 239.83 28.80 240.81 C 28.01 243.62 26.82 246.31 26.03 249.13 C 28.40 249.53 30.81 249.42 33.19 249.08 C 33.86 246.93 34.49 244.76 34.90 242.54 C 39.01 241.93 43.18 242.17 47.32 242.34 C 47.77 244.53 48.43 246.67 49.07 248.82 C 51.53 249.27 54.03 249.40 56.52 249.28 C 52.74 238.77 49.31 228.14 45.32 217.72 C 42.47 217.83 39.61 217.80 36.76 217.73 C 36.60 218.31 36.30 219.46 36.14 220.04 M 57.14 217.71 C 57.13 219.60 57.14 221.48 57.18 223.37 C 60.39 223.26 63.60 223.21 66.80 223.40 C 66.74 231.98 66.89 240.57 66.73 249.16 C 68.97 249.33 71.22 249.37 73.46 249.28 C 73.37 240.63 73.45 231.99 73.41 223.34 C 76.69 223.25 79.98 223.24 83.26 223.34 C 83.30 221.49 83.32 219.64 83.34 217.79 C 74.61 217.79 65.88 217.88 57.14 217.71 M 88.20 217.82 C 88.20 219.63 88.20 221.44 88.18 223.25 C 91.38 223.31 94.58 223.29 97.77 223.28 C 98.13 231.58 97.80 239.89 97.92 248.20 C 99.20 250.11 102.34 249.06 104.36 249.39 C 104.78 240.72 104.65 232.01 104.42 223.33 C 107.73 223.28 111.03 223.24 114.34 223.35 C 114.42 221.47 114.43 219.59 114.36 217.72 C 105.64 217.89 96.92 217.72 88.20 217.82 M 120.40 217.96 C 120.56 228.30 120.60 238.65 120.38 248.99 C 122.66 249.49 125.00 249.38 127.31 249.21 C 127.20 238.75 127.16 228.30 127.33 217.85 C 125.02 217.73 122.70 217.71 120.40 217.96 M 135.48 225.90 C 132.93 232.69 133.43 241.69 139.44 246.56 C 142.72 249.75 147.66 249.46 151.88 249.21 C 157.56 249.06 161.99 244.02 162.81 238.64 C 160.52 238.63 158.23 238.65 155.95 238.70 C 155.27 242.31 151.50 244.62 147.94 243.80 C 144.96 243.98 143.32 241.40 141.63 239.42 C 140.54 234.66 139.92 228.63 143.99 225.04 C 147.48 221.68 155.54 223.05 155.64 228.57 C 158.00 228.80 160.38 228.83 162.75 228.77 C 162.35 225.40 160.75 222.06 157.90 220.10 C 150.75 214.87 138.82 217.32 135.48 225.90 Z" />
<path fill="#ffffff" opacity="1.00" d=" M 176.13 223.26 C 181.08 223.31 186.04 223.28 191.00 223.28 L 191.00 243.87 C 186.03 243.86 181.07 243.88 176.11 243.85 C 176.13 241.33 176.13 238.81 176.11 236.29 C 180.65 236.27 185.19 236.28 189.73 236.39 C 189.72 234.51 189.70 232.64 189.67 230.77 C 185.15 230.84 180.63 230.81 176.11 230.79 C 176.14 228.28 176.15 225.76 176.13 223.26 Z" />
<path fill="#ffffff" opacity="1.00" d=" M 37.70 234.76 C 39.09 231.52 39.85 228.06 41.15 224.80 C 42.91 228.65 43.45 232.96 45.53 236.67 C 42.79 236.92 40.04 236.94 37.29 236.88 C 37.39 236.35 37.60 235.29 37.70 234.76 Z" />
</g>
<g id="#010101ff">
<path fill="#010101" opacity="1.00" d=" M 161.01 7.00 C 163.36 4.84 165.39 2.24 168.24 0.68 C 168.36 15.87 168.22 31.07 168.31 46.26 C 165.10 50.06 161.06 53.03 157.60 56.59 C 145.18 68.84 132.29 80.57 119.90 92.86 C 112.01 84.93 103.81 77.32 95.59 69.75 C 95.41 85.14 95.55 100.53 95.51 115.91 C 74.90 135.50 54.39 155.20 33.83 174.85 C 30.21 178.53 26.05 181.67 22.79 185.70 C 22.56 170.21 22.74 154.72 22.71 139.23 C 27.97 133.99 33.31 128.83 38.75 123.78 C 49.69 113.36 60.56 102.87 71.49 92.44 C 79.39 84.73 87.46 77.20 95.50 69.64 C 117.42 48.85 139.21 27.92 161.01 7.00 Z" />
<path fill="#010101" opacity="1.00" d=" M 0.00 217.79 C 2.24 217.78 4.49 217.79 6.73 217.85 C 6.58 226.51 6.72 235.17 6.65 243.83 C 11.25 243.88 15.85 243.91 20.45 243.83 C 20.45 245.71 20.45 247.58 20.45 249.46 C 13.64 249.33 6.82 249.42 0.00 249.40 L 0.00 217.79 Z" />
<path fill="#010101" opacity="1.00" d=" M 36.14 220.04 C 36.30 219.46 36.60 218.31 36.76 217.73 C 39.61 217.80 42.47 217.83 45.32 217.72 C 49.31 228.14 52.74 238.77 56.52 249.28 C 54.03 249.40 51.53 249.27 49.07 248.82 C 48.43 246.67 47.77 244.53 47.32 242.34 C 43.18 242.17 39.01 241.93 34.90 242.54 C 34.49 244.76 33.86 246.93 33.19 249.08 C 30.81 249.42 28.40 249.53 26.03 249.13 C 26.82 246.31 28.01 243.62 28.80 240.81 C 29.16 239.83 29.51 238.85 29.86 237.88 C 32.07 231.98 33.81 225.90 36.14 220.04 M 37.70 234.76 C 37.60 235.29 37.39 236.35 37.29 236.88 C 40.04 236.94 42.79 236.92 45.53 236.67 C 43.45 232.96 42.91 228.65 41.15 224.80 C 39.85 228.06 39.09 231.52 37.70 234.76 Z" />
<path fill="#010101" opacity="1.00" d=" M 57.14 217.71 C 65.88 217.88 74.61 217.79 83.34 217.79 C 83.32 219.64 83.30 221.49 83.26 223.34 C 79.98 223.24 76.69 223.25 73.41 223.34 C 73.45 231.99 73.37 240.63 73.46 249.28 C 71.22 249.37 68.97 249.33 66.73 249.16 C 66.89 240.57 66.74 231.98 66.80 223.40 C 63.60 223.21 60.39 223.26 57.18 223.37 C 57.14 221.48 57.13 219.60 57.14 217.71 Z" />
<path fill="#010101" opacity="1.00" d=" M 88.20 217.82 C 96.92 217.72 105.64 217.89 114.36 217.72 C 114.43 219.59 114.42 221.47 114.34 223.35 C 111.03 223.24 107.73 223.28 104.42 223.33 C 104.65 232.01 104.78 240.72 104.36 249.39 C 102.34 249.06 99.20 250.11 97.92 248.20 C 97.80 239.89 98.13 231.58 97.77 223.28 C 94.58 223.29 91.38 223.31 88.18 223.25 C 88.20 221.44 88.20 219.63 88.20 217.82 Z" />
<path fill="#010101" opacity="1.00" d=" M 120.40 217.96 C 122.70 217.71 125.02 217.73 127.33 217.85 C 127.16 228.30 127.20 238.75 127.31 249.21 C 125.00 249.38 122.66 249.49 120.38 248.99 C 120.60 238.65 120.56 228.30 120.40 217.96 Z" />
<path fill="#010101" opacity="1.00" d=" M 135.48 225.90 C 138.82 217.32 150.75 214.87 157.90 220.10 C 160.75 222.06 162.35 225.40 162.75 228.77 C 160.38 228.83 158.00 228.80 155.64 228.57 C 155.54 223.05 147.48 221.68 143.99 225.04 C 139.92 228.63 140.54 234.66 141.63 239.42 C 143.32 241.40 144.96 243.98 147.94 243.80 C 151.50 244.62 155.27 242.31 155.95 238.70 C 158.23 238.65 160.52 238.63 162.81 238.64 C 161.99 244.02 157.56 249.06 151.88 249.21 C 147.66 249.46 142.72 249.75 139.44 246.56 C 133.43 241.69 132.93 232.69 135.48 225.90 Z" />
<path fill="#010101" opacity="1.00" d=" M 169.34 217.84 C 176.56 217.73 183.78 217.82 191.00 217.81 L 191.00 223.28 C 186.04 223.28 181.08 223.31 176.13 223.26 C 176.15 225.76 176.14 228.28 176.11 230.79 C 180.63 230.81 185.15 230.84 189.67 230.77 C 189.70 232.64 189.72 234.51 189.73 236.39 C 185.19 236.28 180.65 236.27 176.11 236.29 C 176.13 238.81 176.13 241.33 176.11 243.85 C 181.07 243.88 186.03 243.86 191.00 243.87 L 191.00 249.40 C 183.80 249.42 176.61 249.35 169.41 249.47 C 169.36 238.93 169.49 228.38 169.34 217.84 Z" />
</g>
<g id="#fecc01ff">
<path fill="#fecc01" opacity="1.00" d=" M 22.44 2.39 C 23.41 2.41 24.38 2.42 25.35 2.43 C 36.97 14.24 49.49 25.12 61.07 36.97 C 71.11 45.54 79.88 55.48 89.81 64.18 C 92.01 65.68 93.34 68.11 95.50 69.64 C 87.46 77.20 79.39 84.73 71.49 92.44 C 66.03 89.09 62.18 83.71 57.38 79.52 C 46.62 70.02 36.87 59.46 26.14 49.94 C 24.47 48.35 22.23 46.72 22.59 44.09 C 22.45 30.19 22.72 16.29 22.44 2.39 Z" />
<path fill="#fecc01" opacity="1.00" d=" M 95.59 69.75 C 103.81 77.32 112.01 84.93 119.90 92.86 C 130.40 102.38 140.41 112.44 150.56 122.33 C 156.13 126.78 160.82 132.17 166.08 136.95 C 167.01 137.80 167.71 138.84 168.41 139.88 C 168.31 153.98 168.51 168.10 168.31 182.20 C 168.14 182.61 167.82 183.45 167.65 183.87 C 167.22 183.73 166.36 183.46 165.92 183.32 C 164.18 180.63 161.11 179.31 159.22 176.78 C 153.49 171.87 148.40 166.25 142.90 161.09 C 136.11 155.22 129.85 148.77 123.45 142.50 C 122.03 141.17 120.75 139.42 118.69 139.14 C 118.67 138.78 118.63 138.06 118.61 137.70 C 116.60 137.09 115.86 134.88 114.27 133.69 C 107.73 128.07 101.98 121.60 95.51 115.91 C 95.55 100.53 95.41 85.14 95.59 69.75 Z" />
</g>
</svg>

<?xml version="1.0" encoding="utf-8"?>
<!-- Generator: Adobe Illustrator 26.0.3, SVG Export Plug-In . SVG Version: 6.00 Build 0)  -->
<svg version="1.1" id="Layer_1" xmlns="http://www.w3.org/2000/svg" xmlns:xlink="http://www.w3.org/1999/xlink" x="0px" y="0px"
	 viewBox="0 0 191 250" style="enable-background:new 0 0 191 250;" xml:space="preserve">
<style type="text/css">
	.st0{fill:#FFFFFF;}
	.st1{fill:#010101;}
	.st2{fill:#FECC01;}
</style>
<g id="_x23_ffffffff">
	<path class="st0" d="M176.1,223.3c4.9,0.1,9.9,0,14.9,0v20.6c-5,0-9.9,0-14.9,0c0-2.5,0-5,0-7.6c4.5,0,9.1,0,13.6,0.1
		c0-1.9,0-3.8-0.1-5.6c-4.5,0.1-9,0-13.6,0C176.1,228.3,176.1,225.8,176.1,223.3z"/>
	<path class="st0" d="M37.7,234.8c1.4-3.2,2.1-6.7,3.5-10c1.8,3.8,2.3,8.2,4.4,11.9c-2.7,0.2-5.5,0.3-8.2,0.2
		C37.4,236.4,37.6,235.3,37.7,234.8z"/>
</g>
<g id="_x23_010101ff">
	<path class="st1" d="M161,7c2.4-2.2,4.4-4.8,7.2-6.3c0.1,15.2,0,30.4,0.1,45.6c-3.2,3.8-7.2,6.8-10.7,10.3
		c-12.4,12.2-25.3,24-37.7,36.3c-7.9-7.9-16.1-15.5-24.3-23.1c-0.2,15.4,0,30.8-0.1,46.2c-20.6,19.6-41.1,39.3-61.7,58.9
		c-3.6,3.7-7.8,6.8-11,10.8c-0.2-15.5-0.1-31-0.1-46.5c5.3-5.2,10.6-10.4,16-15.4c10.9-10.4,21.8-20.9,32.7-31.3
		c7.9-7.7,16-15.2,24-22.8C117.4,48.8,139.2,27.9,161,7z"/>
	<path class="st1" d="M0,217.8c2.2,0,4.5,0,6.7,0.1c-0.2,8.7,0,17.3-0.1,26c4.6,0.1,9.2,0.1,13.8,0c0,1.9,0,3.8,0,5.6
		c-6.8-0.1-13.6,0-20.5-0.1V217.8z"/>
	<path class="st1" d="M36.1,220c0.2-0.6,0.5-1.7,0.6-2.3c2.9,0.1,5.7,0.1,8.6,0c4,10.4,7.4,21.1,11.2,31.6c-2.5,0.1-5,0-7.5-0.5
		c-0.6-2.2-1.3-4.3-1.8-6.5c-4.1-0.2-8.3-0.4-12.4,0.2c-0.4,2.2-1,4.4-1.7,6.5c-2.4,0.3-4.8,0.4-7.2,0.1c0.8-2.8,2-5.5,2.8-8.3
		c0.4-1,0.7-2,1.1-2.9C32.1,232,33.8,225.9,36.1,220 M37.7,234.8c-0.1,0.5-0.3,1.6-0.4,2.1c2.8,0.1,5.5,0,8.2-0.2
		c-2.1-3.7-2.6-8-4.4-11.9C39.8,228.1,39.1,231.5,37.7,234.8z"/>
	<path class="st1" d="M57.1,217.7c8.7,0.2,17.5,0.1,26.2,0.1c0,1.9,0,3.7-0.1,5.6c-3.3-0.1-6.6-0.1-9.8,0c0,8.7,0,17.3,0,25.9
		c-2.2,0.1-4.5,0.1-6.7-0.1c0.2-8.6,0-17.2,0.1-25.8c-3.2-0.2-6.4-0.1-9.6,0C57.1,221.5,57.1,219.6,57.1,217.7z"/>
	<path class="st1" d="M88.2,217.8c8.7-0.1,17.4,0.1,26.2-0.1c0.1,1.9,0.1,3.8,0,5.6c-3.3-0.1-6.6-0.1-9.9,0
		c0.2,8.7,0.4,17.4-0.1,26.1c-2-0.3-5.2,0.7-6.4-1.2c-0.1-8.3,0.2-16.6-0.2-24.9c-3.2,0-6.4,0-9.6,0
		C88.2,221.4,88.2,219.6,88.2,217.8z"/>
	<path class="st1" d="M120.4,218c2.3-0.2,4.6-0.2,6.9-0.1c-0.2,10.4-0.1,20.9,0,31.4c-2.3,0.2-4.6,0.3-6.9-0.2
		C120.6,238.6,120.6,228.3,120.4,218z"/>
	<path class="st1" d="M135.5,225.9c3.3-8.6,15.3-11,22.4-5.8c2.9,2,4.5,5.3,4.9,8.7c-2.4,0.1-4.8,0-7.1-0.2
		c-0.1-5.5-8.2-6.9-11.6-3.5c-4.1,3.6-3.5,9.6-2.4,14.4c1.7,2,3.3,4.6,6.3,4.4c3.6,0.8,7.3-1.5,8-5.1c2.3-0.1,4.6-0.1,6.9-0.1
		c-0.8,5.4-5.2,10.4-10.9,10.6c-4.2,0.2-9.2,0.5-12.4-2.7C133.4,241.7,132.9,232.7,135.5,225.9z"/>
	<path class="st1" d="M169.3,217.8c7.2-0.1,14.4,0,21.7,0v5.5c-5,0-9.9,0-14.9,0c0,2.5,0,5,0,7.5c4.5,0,9,0.1,13.6,0
		c0,1.9,0.1,3.7,0.1,5.6c-4.5-0.1-9.1-0.1-13.6-0.1c0,2.5,0,5,0,7.6c5,0,9.9,0,14.9,0v5.5c-7.2,0-14.4,0-21.6,0.1
		C169.4,238.9,169.5,228.4,169.3,217.8z"/>
</g>
<g id="_x23_fecc01ff">
	<path class="st2" d="M22.4,2.4c1,0,1.9,0,2.9,0C37,14.2,49.5,25.1,61.1,37c10,8.6,18.8,18.5,28.7,27.2c2.2,1.5,3.5,3.9,5.7,5.5
		c-8,7.6-16.1,15.1-24,22.8c-5.5-3.4-9.3-8.7-14.1-12.9C46.6,70,36.9,59.5,26.1,49.9c-1.7-1.6-3.9-3.2-3.5-5.8
		C22.5,30.2,22.7,16.3,22.4,2.4z"/>
	<path class="st2" d="M95.6,69.8c8.2,7.6,16.4,15.2,24.3,23.1c10.5,9.5,20.5,19.6,30.7,29.5c5.6,4.4,10.3,9.8,15.5,14.6
		c0.9,0.9,1.6,1.9,2.3,2.9c-0.1,14.1,0.1,28.2-0.1,42.3c-0.2,0.4-0.5,1.2-0.7,1.7c-0.4-0.1-1.3-0.4-1.7-0.5c-1.7-2.7-4.8-4-6.7-6.5
		c-5.7-4.9-10.8-10.5-16.3-15.7c-6.8-5.9-13-12.3-19.4-18.6c-1.4-1.3-2.7-3.1-4.8-3.4c0-0.4-0.1-1.1-0.1-1.4c-2-0.6-2.8-2.8-4.3-4
		c-6.5-5.6-12.3-12.1-18.8-17.8C95.6,100.5,95.4,85.1,95.6,69.8z"/>
</g>
</svg>
